workspaces/osm/styles/symbols/tower_lighting.svg

<svg xmlns="http://www.w3.org/2000/svg" width="14" height="14" viewBox="0 0 14 14">
  <path d="M 7 1 C 6.4022075 1 6 1.4692172 6 2 L 6 11 L 5 11 L 5 12 L 3 12 L 3 14 L 11 14 L 11 12 L 9 12 L 9 11 L 8 11 L 8 2 C 8 1.5039063 7.5977925 1 7 1 z M 2.7148438 1.5449219 C 2.5475777 1.6291099 2.4854767 1.9211987 2.7148438 2.0136719 L 4.5898438 2.7636719 C 4.8962727 2.887214 5.0831658 2.4182195 4.7773438 2.2949219 L 2.9023438 1.5449219 C 2.8258838 1.5140979 2.7705987 1.5168599 2.7148438 1.5449219 z M 11 1.5957031 L 9.125 2.3457031 C 8.819178 2.4690007 9.006071 2.9379952 9.3125 2.8144531 L 11.1875 2.0644531 C 11.493323 1.9411555 11.305822 1.4724055 11 1.5957031 z M 2.7460938 3.3261719 C 2.4163518 3.3261719 2.4163518 3.8261719 2.7460938 3.8261719 L 4.7460938 3.8261719 C 5.0764898 3.8261719 5.0758357 3.3261719 4.7460938 3.3261719 L 2.7460938 3.3261719 z M 9.15625 3.3769531 C 8.826508 3.3769531 8.825854 3.8769531 9.15625 3.8769531 L 11.15625 3.8769531 C 11.485991 3.8769531 11.485991 3.3769531 11.15625 3.3769531 L 9.15625 3.3769531 z M 4.5898438 4.4511719 L 2.7148438 5.2011719 C 2.4090217 5.3244695 2.5959147 5.793464 2.9023438 5.6699219 L 4.7773438 4.9199219 C 5.0831658 4.7966243 4.8956657 4.3278743 4.5898438 4.4511719 z M 9.125 4.5019531 C 8.957734 4.5861401 8.895633 4.8782299 9.125 4.9707031 L 11 5.7207031 C 11.306429 5.8442452 11.493322 5.3752507 11.1875 5.2519531 L 9.3125 4.5019531 C 9.23605 4.4711291 9.180755 4.4738911 9.125 4.5019531 z"/>
</svg>

<svg width="14" height="14" version="1.1" viewBox="0 0 14 14" xmlns="http://www.w3.org/2000/svg"><path d="m7 1c-0.54594-0.024024-1.0264 0.47364-1 1.0158v8.9842h-1v1h-2v2h8v-2h-2v-1h-1c-7.813e-4 -3.0155 0.0015626-6.031-0.001172-9.0465-0.020858-0.5154-0.47682-0.96708-0.99883-0.95348zm-4.2852 0.54492c-0.20634 0.095373-0.19694 0.4434 0.043891 0.48631 0.62961 0.24793 1.2545 0.50964 1.8871 0.74889 0.31898 0.059752 0.3958-0.46782 0.073015-0.50861-0.62386-0.24655-1.244-0.5036-1.8702-0.74354-0.044731-0.010728-0.093172-0.0046-0.13379 0.01695zm8.2852 0.050781c-0.64142 0.26071-1.2893 0.5074-1.9267 0.77694-0.27128 0.17746 0.035341 0.61263 0.29768 0.4184 0.62192-0.25291 1.2503-0.4918 1.8681-0.75353 0.24085-0.15225 0.025465-0.56748-0.23915-0.44181zm-8.2539 1.7305c-0.35387-0.017943-0.29894 0.57707 0.047272 0.5 0.67018-0.00366 1.3411 0.00737 2.0108-0.00562 0.31854-0.06225 0.19268-0.57748-0.1211-0.49438h-1.937zm6.4102 0.050781c-0.35409-0.017965-0.29929 0.57726 0.047272 0.5 0.67014-0.00366 1.341 0.00737 2.0107-0.00562 0.31818-0.062399 0.19277-0.57743-0.12099-0.49438h-1.937zm-4.5664 1.0742c-0.64142 0.26071-1.2893 0.5074-1.9267 0.77694-0.27128 0.17746 0.035341 0.61263 0.29768 0.4184 0.62192-0.25291 1.2503-0.4918 1.8681-0.75353 0.24085-0.15225 0.025465-0.56748-0.23915-0.44181zm4.5352 0.050781c-0.20634 0.095372-0.19694 0.4434 0.043891 0.48631 0.62961 0.24793 1.2545 0.50964 1.8871 0.74889 0.31898 0.059752 0.3958-0.46782 0.07301-0.50861-0.62385-0.24655-1.244-0.50359-1.8702-0.74354-0.044732-0.010727-0.093174-0.0046017-0.13379 0.01695z"/></svg>
